icons/Haxe-Dark.svg

<svg xmlns="http://www.w3.org/2000/svg" width="256" height="256" fill="none" viewBox="0 0 256 256"><rect width="256" height="256" fill="#242938" rx="60"/><path fill="#FBC707" d="M128 60.5008L76.7392 54.8236L38 38H82.9984L128 60.5038"/><path fill="#FBC707" d="M128 60.5008L180.435 55.9975L218 38H172.998L128 60.5038"/><path fill="#F68712" d="M128 195.502L176.913 197.263L218 218.003H172.998L128 195.498"/><path fill="#F25C19" d="M128 195.502H78.6957L38 218.003H82.9984L128 195.498"/><path fill="#FFF200" d="M60.4992 128.002V175.349L38 218.003V173.003L60.4992 128.001"/><path fill="#FFF200" d="M60.4992 128.002L56.7825 81.0418L38 38V82.9995L60.4992 128.001"/><path fill="#F1471D" d="M195.497 128.002L200.391 78.6939L218 38V82.9995L195.497 128.001"/><path fill="#F1471D" d="M195.497 128.002L199.609 180.828L218 218.003V173.003L195.497 128.001"/><path fill="#FAB20B" d="M38 38L128 60.5008L113.522 117.826L60.4992 128.002L38 38.0048"/><path fill="#F47216" d="M218 38L195.497 128.002L135.043 117.04L128 60.498L218 38.0048"/><path fill="#F25C19" d="M218 218.003L128 195.502L138.174 135.831L195.497 128.007L218 217.997"/><path fill="#F89C0E" d="M38 218.003L60.4992 128.002L114.696 140.131L128 195.502L38 217.997"/><path fill="#F68712" d="M128 60.5008L60.4993 128.002L128 195.502L195.497 128.002L128 60.5038"/></svg>

<svg xmlns="http://www.w3.org/2000/svg" width="256" height="256" fill="none" viewBox="0 0 256 256"><rect width="256" height="256" fill="#242938" rx="60"/><path fill="#FBC707" d="m128 60.5-51.26-5.68L38 38h45zm0 0 52.44-4.5L218 38h-45z"/><path fill="#F68712" d="m128 195.5 48.91 1.76L218 218h-45z"/><path fill="#F25C19" d="M128 195.5H78.7L38 218h45z"/><path fill="#FFF200" d="M60.5 128v47.35L38 218v-45zm0 0-3.72-46.96L38 38v45z"/><path fill="#F1471D" d="m195.5 128 4.9-49.3L218 38v45zm0 0 4.1 52.83L218 218v-45z"/><path fill="#FAB20B" d="m38 38 90 22.5-14.48 57.33L60.5 128z"/><path fill="#F47216" d="m218 38-22.5 90-60.46-10.96L128 60.5z"/><path fill="#F25C19" d="m218 218-90-22.5 10.17-59.67 57.33-7.82z"/><path fill="#F89C0E" d="m38 218 22.5-90 54.2 12.13L128 195.5z"/><path fill="#F68712" d="M128 60.5 60.5 128l67.5 67.5 67.5-67.5z"/></svg>
